icon-themes/breeze_svg/cmd/sc_defaultbullet.svg

<svg viewBox="0 0 16 16" xmlns="http://www.w3.org/2000/svg"><path d="m6 2v1h8v-1zm0 2v1h6v-1zm0 4v1h8v-1zm0 2v1h4v-1zm5 0v1h3v-1zm1 3v1h2v-1z" fill="#4d4d4d"/><path d="m4 2a1 1 0 0 0 -1 1 1 1 0 0 0 1 1 1 1 0 0 0 1-1 1 1 0 0 0 -1-1zm0 6a1 1 0 0 0 -1 1 1 1 0 0 0 1 1 1 1 0 0 0 1-1 1 1 0 0 0 -1-1z" fill="#1d99f3"/></svg>

<svg xmlns="http://www.w3.org/2000/svg" viewBox="0 0 16 16">
 <path 
     style="fill:#4d4d4d" 
     d="M 6 2 L 6 3 L 14 3 L 14 2 L 6 2 z M 6 4 L 6 5 L 12 5 L 12 4 L 6 4 z M 6 8 L 6 9 L 14 9 L 14 8 L 6 8 z M 6 10 L 6 11 L 10 11 L 10 10 L 6 10 z M 11 10 L 11 11 L 14 11 L 14 10 L 11 10 z M 12 13 L 12 14 L 14 14 L 14 13 L 12 13 z "
     />
 <path 
     style="fill:#1d99f3" 
     d="M 4 2 A 1 1 0 0 0 3 3 A 1 1 0 0 0 4 4 A 1 1 0 0 0 5 3 A 1 1 0 0 0 4 2 z M 4 8 A 1 1 0 0 0 3 9 A 1 1 0 0 0 4 10 A 1 1 0 0 0 5 9 A 1 1 0 0 0 4 8 z "
     />
 </svg>
